Rowaita-Dark/16x16/actions/format-justify-left.svg

<svg xmlns="http://www.w3.org/2000/svg" width="16" height="16" viewBox="0 0 16 16">
 <defs>
  <style id="current-color-scheme" type="text/css">
   .ColorScheme-Text { color:#dfdfdf; } .ColorScheme-Highlight { color:#4285f4; }
  </style>
 </defs>
 <path style="fill:currentColor" class="ColorScheme-Text" d="M 1 1 L 1 3 L 15 3 L 15 1 L 1 1 z M 1 5.0039062 L 1 7.0039062 L 9 7.0039062 L 9 5.0039062 L 1 5.0039062 z M 1 9.0039062 L 1 11.003906 L 9 11.003906 L 9 9.0039062 L 1 9.0039062 z M 1 13 L 1 15 L 15 15 L 15 13 L 1 13 z"/>
</svg>

<?xml version="1.0" encoding="UTF-8" standalone="no"?>
<svg
   height="16px"
   viewBox="0 0 16 16"
   width="16px"
   version="1.1"
   id="svg4"
   sodipodi:docname="format-justify-left.svg"
   inkscape:version="1.2.1 (9c6d41e410, 2022-07-14)"
   xmlns:inkscape="http://www.inkscape.org/namespaces/inkscape"
   xmlns:sodipodi="http://sodipodi.sourceforge.net/DTD/sodipodi-0.dtd"
   xmlns="http://www.w3.org/2000/svg"
   xmlns:svg="http://www.w3.org/2000/svg">
  <defs
     id="defs8" />
  <sodipodi:namedview
     id="namedview6"
     pagecolor="#ffffff"
     bordercolor="#000000"
     borderopacity="0.25"
     inkscape:showpageshadow="2"
     inkscape:pageopacity="0.0"
     inkscape:pagecheckerboard="0"
     inkscape:deskcolor="#d1d1d1"
     showgrid="false"
     inkscape:zoom="16.046875"
     inkscape:cx="-2.18111"
     inkscape:cy="9.067186"
     inkscape:current-layer="svg4" />
  <path
     d="m 1 1 v 2 h 14 v -2 z m 0 4 v 2 h 10 v -2 z m 0 4 v 2 h 14 v -2 z m 0 4 v 2 h 10 v -2 z m 0 0"
     fill="#2e3436"
     id="path2"
     style="fill:#dfdfdf;fill-opacity:1" />
</svg>
